X:48
T:Irish Washerwoman
M:6/8
L:1/8
R:jig
K:G
dc | BGG DGG | BGB dcB | cAA EAA | cBc edc |
BGG DGG | BGB dcB | cBc Adc |1 BGG G :|2 BGG G2 |:
g | gdg gdg | gdg bag | fdf fdf | fdf agf |
egg dgg | cgg Bgg | cBc Adc |1 BGG G2 :|2 BGG G |]
